X: 726
T: St. Albans
P: Longways for as many as will
%R: jig
B: "The Compleat Country Dancing-Master" printed by John Walsh, London ca. 1740
S: 6: CCDM1 http://imslp.org/wiki/The_Compleat_Country_Dancing-Master_(Various) V.1 p.78 #118 (156)
B: "The Dancing-Master: Containing Directions and Tunes for Dancing" printed by W. Pearson for John Walsh, London ca. 1709
S: 7: DMDfD http://digital.nls.uk/special-collections-of-printed-music/pageturner.cfm?id=89751228 p.259 "Z 4"
Z: 2013 John Chambers <jc:trillian.mit.edu>
N: Repeats added to satisfy the "first strain twice" instruction. (Should the 2nd strain also be repeated?)
M: 6/4
L: 1/4
K: F
% - - - - - - - - - - - - - - - - - - - - - - - - -
|:\
c2c f>ed | c2B A3  | cAF  dBG | fcd A>GF |\
cAc f>ed | c2B A2c | dAc =BdG | gdf e>dc :|
gec g2c  | afd a2d | ge^c Aad | gef  e2d |\
Acf Bdg  | cea dfb | g>fg cAF | f>ga g2f |]
% - - - - - - - - - - - - - - - - - - - - - - - - -
%%begintext align
%% The 1st Man sett to the 2d Wo. and turn single, then
%% sett to his Partner .| The 2d Man sett to the 1st Wo. and
%% do the same :| Then cross over and figure, the 2d Man
%% lead to the Wall and back again, the 2d Wo. do the same at
%% the same Time, then all Hands quite round.
%% [CCDM1]
%%endtext
%%sep 1 8 500
% - - - - - - - - - - - - - - - - - - - - - - - - -
%%begintext align
%% The 1. man set to the 2. wo. and turn S. then sets to his Partner, the 2. man sets to the 1. wo. and does the
%% same: The first part of the tune played twice. Cross over and Figure, the 2. man lead to the wall, and
%% back again, the 2. wo. do the same at the same time, then all hands quite round.
%% [DMDfD]
%%endtext
%%sep 1 8 500

%%sep 1 1 500
%%sep 1 1 500
